svg/fluentui-system-icons/ic_fluent_mail_12_regular.svg

<svg width="12" height="12" viewBox="0 0 12 12" fill="none" xmlns="http://www.w3.org/2000/svg">
<path d="M3.5 3C2.67157 3 2 3.67157 2 4.5V7.5C2 8.32843 2.67157 9 3.5 9H8.5C9.32843 9 10 8.32843 10 7.5V4.5C10 3.67157 9.32843 3 8.5 3H3.5ZM3 4.5C3 4.22386 3.22386 4 3.5 4H8.5C8.77614 4 9 4.22386 9 4.5V4.66971L6.00006 5.95554L3 4.66995V4.5ZM3 5.7579L5.80314 6.95911C5.92892 7.01301 6.07129 7.013 6.19706 6.95909L9 5.75769V7.5C9 7.77614 8.77614 8 8.5 8H3.5C3.22386 8 3 7.77614 3 7.5V5.7579Z" fill="#212121"/>
</svg>

<svg xmlns="http://www.w3.org/2000/svg" width="12" height="12"><path d="M3.5 3A1.5 1.5 0 0 0 2 4.5v3A1.5 1.5 0 0 0 3.5 9h5A1.5 1.5 0 0 0 10 7.5v-3A1.5 1.5 0 0 0 8.5 3h-5ZM3 4.5a.5.5 0 0 1 .5-.5h5a.5.5 0 0 1 .5.5v.17L6 5.956 3 4.67V4.5Zm0 1.258 2.803 1.201a.5.5 0 0 0 .394 0L9 5.758V7.5a.5.5 0 0 1-.5.5h-5a.5.5 0 0 1-.5-.5V5.758Z"/></svg>
